!!!COM:	la Rue, Pierre de
!!!CDT:	~1452///-1518/11/20
!!!OPR:	Missa Sancta Dei genitrix
!!!ONM:	1
!!!OTL:	Kyrie
!!!AGN:	Mass; Kyrie
!!!SCT:	Rue1026a
!!!SCA:	Rue1026a
!!!voices:	4
!!!voices-OPR:	4
**kern	**kern	**kern	**kern
*staff4	*staff3	*staff2	*staff1
*Ivox	*Ivox	*Ivox	*Ivox
*I"Bassus	*I"Tenor	*I"Contra	*I"Discantus
*I'B	*I'T	*I'C	*I'D
*>[A,B,C]	*>[A,B,C]	*>[A,B,C]	*>[A,B,C]
*>A	*>A	*>A	*>A
*clefF4	*clefGv2	*clefGv2	*clefG2
*k[]	*k[]	*k[]	*k[]
*M3/1	*M3/1	*M3/1	*M3/1
*met(O)	*met(O)	*met(O)	*met(O)
!!section: Kyrie I
!!!OMD: Kyrie I
=1-	=1-	=1-	=1-
0E	0.r	0.r	0.r
1F	.	.	.
=2	=2	=2	=2
0E	0.r	1r	0.r
.	.	0e	.
1C	.	.	.
=3	=3	=3	=3
1D	1r	1f	0.r
1E	1r	0e	.
2AA/	[1e	.	.
[2A\	.	.	.
=4	=4	=4	=4
2A\]	1e]	1c	0.r
2G\	.	.	.
2.F\	1f	1d	.
8E\L	.	.	.
8D\J	.	.	.
2C/	[1e	1e	.
[2c\	.	.	.
=5	=5	=5	=5
4c\]	1e]	2A/	1r
4B\	.	.	.
4A\	.	1e	.
4G\	.	.	.
1A	1c	.	1r
.	.	2f\	.
[1G	1d	1g	[1b
=6	=6	=6	=6
1G]	1e	2r	1b]
.	.	1g	.
1r	1A	.	1cc
.	.	2f\	.
[1G	1r	2.g\	[1b
.	.	4f\	.
=7	=7	=7	=7
2G\]	0B	1d	1b]
2F\	.	.	.
1E	.	0e	1g
1AA	1c	.	1a
=8	=8	=8	=8
0.E	0B	1e	1b
.	.	2.g\	4e/
.	.	.	4f/
.	.	.	4g/
.	.	4f\	4a/
.	1G	4e\	2b\
.	.	4d\	.
.	.	[2e\	[2cc\
=9	=9	=9	=9
1F	1A	2e\]	2cc\]
.	.	2d\	4b\
.	.	.	4a/
1.E	1B	2e\	1g
.	.	2.g\	.
.	1E	.	2r
.	.	4f\	.
2C/	.	2e\	2cc\
=10	=10	=10	=10
1D	1r	2d\	2b\
.	.	2c\	1a
1E	0e	1B	.
.	.	.	2g#i/
1AA	.	2A/	[1a
.	.	[2c\	.
=11	=11	=11	=11
1D	1f	2c\]	2a/]
.	.	2B\	4g/
.	.	.	4f/
2.C/	0e	1c	2a/
.	.	.	1g
4D\	.	.	.
2E\	.	2B\	.
2AA/	.	4A/	[2cc\
.	.	4B\	.
=12	=12	=12	=12
1A	1c	4c\	2cc\]
.	.	4d\	.
.	.	2e\	4b\
.	.	.	4a/
2G\	1d	2r	2b\
2F\	.	2A/	1a
1E	1e	2B\	.
.	.	[2c\	2g#i/
=13	=13	=13	=13
2.F\	[0.Al	2c\]	[0.al
.	.	2d\	.
4E\	.	.	.
2C/	.	2e\	.
1D	.	2d\	.
.	.	1D	.
4C/	.	.	.
4BB/	.	.	.
=14	=14	=14	=14
0.AAl	0.A]	0.El	0.a]
!!LO:LB:i:g=z
=15||	=15||	=15||	=15||
*>B	*>B	*>B	*>B
*clefF4	*clefGv2	*clefGv2	*clefG2
*k[]	*k[]	*k[]	*k[]
*M2/1	*M2/1	*M2/1	*M2/1
*met(C|)	*met(C|)	*met(C|)	*met(C|)
!!section: Christe
!!!OMD: Christe
0r	0r	0r	1b
.	.	.	2cc\
.	.	.	[2b\
=16	=16	=16	=16
0r	0r	1e	2b\]
.	.	.	2g/
.	.	2f\	2a/
.	.	[2e\	2b\
=17	=17	=17	=17
1A	0r	2e\]	1e
.	.	2c\	.
2B-i\	.	2d\	1r
[2A\	.	2e\	.
=18	=18	=18	=18
2A\]	0r	1A	2r
2F\	.	.	2a/
2G\	.	1e	2b-i\
2A\	.	.	[2a/
=19	=19	=19	=19
1D	0r	1f	2a/]
.	.	.	2f/
2r	.	2e\	2g/
2A\	.	2c\	2a/
=20	=20	=20	=20
2B-i\	0r	2d\	2d/
2A\	.	2e\	2.a/
1F	.	2A/	.
.	.	.	4g/
.	.	[2d\	2f/
=21	=21	=21	=21
2G\	0r	2d\]	1e
2A\	.	2c#i\	.
[1D	.	1d	2d/
.	.	.	[2f/
=22	=22	=22	=22
1D]	0r	2r	2f/]
.	.	2B\	4e/
.	.	.	4d/
1r	.	2c\	2e/
.	.	[2B\	2d/
=23	=23	=23	=23
1E	0r	2B\]	1g
.	.	2G/	.
2F\	.	2A/	2c/
[2E\	.	2B\	[2g/
=24	=24	=24	=24
2E\]	0r	2E/	2g/]
2C/	.	1A	2e/
2D\	.	.	2f/
2E\	.	2G#i/	2g/
=25	=25	=25	=25
1AA	0r	2.A/	2c/
.	.	.	2.cc\
.	.	4B\	.
1r	.	2c\	.
.	.	.	4b\
.	.	2d\	[2a/
=26	=26	=26	=26
1E	0r	2B\	2a/]
.	.	2.c\	2g/
2F\	.	.	2a/
.	.	4d\	.
2E\	.	[2e\	[2g/
=27	=27	=27	=27
1C	0r	2e\]	2g/]
.	.	4d\	4f/
.	.	4c\	4e/
2D\	.	1B	2d/
2E\	.	.	2g/
=28	=28	=28	=28
1AA	0r	1c	2f/
.	.	.	2e/
1r	.	2B\	1b
.	.	2G/	.
=29	=29	=29	=29
1r	0r	2A/	2cc\
.	.	2B\	1b
1E	.	2E/	.
.	.	2B\	2g/
=30	=30	=30	=30
2F\	0r	2A/	2a/
1E	.	2.G/	2b\
.	.	.	1e
.	.	4E/	.
2C/	.	[2A/	.
=31	=31	=31	=31
2D\	0r	2A/]	1b
2E\	.	2G#i/	.
2AA/	.	2A/	2cc\
2E\	.	4Gni/	4b\
.	.	[4c\	4g/
=32	=32	=32	=32
2F\	0r	4c\]	2a/
.	.	8B/L	.
.	.	8A/J	.
1E	.	2G/	2b\
.	.	1c	2e/
2C/	.	.	[2a/
=33	=33	=33	=33
2D\	0.r	1B	2a/]
2E\	.	.	2g#i/
0AAl	.	0Al	0al
!!LO:LB:i:g=z
=34||	=34||	=34||	=34||
*>C	*>C	*>C	*>C
*clefF4	*clefGv2	*clefGv2	*clefG2
*k[]	*k[]	*k[]	*k[]
*M3/1	*M3/1	*M3/1	*M3/1
*met(O|)	*met(O|)	*met(O|)	*met(O|)
!!section: Kyrie II
!!!OMD: Kyrie II
0.r	0.r	1r	1b
.	.	1r	2cc\
.	.	.	1b
.	.	1e	.
.	.	.	2g/
=35	=35	=35	=35
0.r	0.r	2f\	2a/
.	.	1e	2b\
.	.	.	2e/
.	.	2c\	1a
.	.	1d	.
.	.	.	4g/
.	.	.	4f/
=36	=36	=36	=36
[0.E	[0.B	2.e\	1g
.	.	4f\	.
.	.	1g	2.e/
.	.	.	4f/
.	.	[1e	2g/
.	.	.	[2a/
=37	=37	=37	=37
1E]	1B]	0e]	2a/]
.	.	.	2g#i/
0AA	0c	.	1a
.	.	1r	2r
.	.	.	[2a/
=38	=38	=38	=38
[0.E	0.B	1.e	2a/]
.	.	.	4g/
.	.	.	4f/
.	.	.	1.g
.	.	2f\	.
.	.	[1g	.
.	.	.	2a/
=39	=39	=39	=39
1E]	1G	2g\]	2b\
.	.	2c\	1cc
0F	0A	1c	.
.	.	.	2b\
.	.	1d	1a
=40	=40	=40	=40
1.E	0.B	0e	1.g
2F\	.	.	2a/
[1G	.	1d	[1b
=41	=41	=41	=41
2G\]	[0.E	1.g	2b\]
2C/	.	.	2.cc\
1C	.	.	.
.	.	.	4b\
.	.	2.e\	4g/
.	.	.	4a/
1r	.	.	1b
.	.	4d\	.
.	.	2B\	.
=42	=42	=42	=42
0.r	0.E]	1e	2cc\
.	.	.	2.b\
.	.	2d\	.
.	.	.	4a/
.	.	2c\	1a
.	.	1B	.
.	.	.	2g#i/
=43	=43	=43	=43
2r	0e	2.A/	1a
2.AA/	.	.	.
.	.	4B\	.
.	.	4c\	1r
4BB/	.	4d\	.
4C/	.	1c	.
4AA/	.	.	.
1D	1f	.	1r
.	.	2B\	.
=44	=44	=44	=44
0C	0e	1c	2r
.	.	.	2g/
.	.	2.c\	2a/
.	.	.	1g
.	.	4B\	.
1C	1c	2G/	.
.	.	2A/	2e/
=45	=45	=45	=45
1BB-	1d	1D	2f/
.	.	.	2g/
2AA/	0e	1r	2c/
2A\	.	.	2cc\
2G\	.	1r	2b\
[2A\	.	.	[2cc\
=46	=46	=46	=46
2A\]	1A	1r	2cc\]
4G\	.	.	4b\
4F\	.	.	4a/
2E\	2B-i\	1r	2g/
2AA/	1A	.	4f/
.	.	.	2e/
1D	.	1A	.
.	.	.	4d/
.	2F/	.	[2d/
=47	=47	=47	=47
1r	2G/	2B-i\	2d/]
.	2A/	1A	2c#i/
1A	0D	.	1d
.	.	2F/	.
2B-i\	.	2G/	1r
[2A\	.	2A/	.
=48	=48	=48	=48
*k[]	*k[]	*k[]	*k[]
2A\]	1r	2D/	1a
2F\	.	1d	.
2G\	1r	.	2b-i\
2A\	.	2c\	1a
1D	1d	2d\	.
.	.	2A/	2f/
=49	=49	=49	=49
2G\	2e\	2B\	2g/
2F\	1d	2A/	2a/
1G	.	2B\	2d/
.	2B\	2G/	1e
1F	2c\	1A	.
.	2d\	.	2d/
=50	=50	=50	=50
0.El	0.Gl	0.Bl	0.el
==	==	==	==
*-	*-	*-	*-
!!!RDF**kern: l=long note in original notation
!!!RDF**kern: i=editorial accidental
!!!RDF**kern: V=start of tuplet marker
!!!RDF**kern: Z=end of tuplet marker
!!!ENC:	Jesse Rodin; Chris Gage 10-25-2012
!!!END:	2012/11/12/
!!!EED:	Jesse Rodin
!!!EEV:	2012/12/15/
!!!ONB:	Translated from MusicXML and edited on 2012/12/15/ by Craig Sapp
!!muse2ps: T^@{OPR}^u^@{ONM}{. }@{OTL}^C^@{COM}^i2I150v85,85,85,150Q4c120
